public/assets/images/search-icon.svg

<svg width="40" height="40" viewBox="0 0 40 40" fill="none" xmlns="http://www.w3.org/2000/svg">
<g clip-path="url(#clip0_22595_157675)">
<path d="M26.3333 27.5L21.0833 22.25C20.6667 22.5833 20.1875 22.8472 19.6458 23.0417C19.1042 23.2361 18.5278 23.3333 17.9167 23.3333C16.4028 23.3333 15.1215 22.809 14.0729 21.7604C13.0243 20.7118 12.5 19.4306 12.5 17.9167C12.5 16.4028 13.0243 15.1215 14.0729 14.0729C15.1215 13.0243 16.4028 12.5 17.9167 12.5C19.4306 12.5 20.7118 13.0243 21.7604 14.0729C22.809 15.1215 23.3333 16.4028 23.3333 17.9167C23.3333 18.5278 23.2361 19.1042 23.0417 19.6458C22.8472 20.1875 22.5833 20.6667 22.25 21.0833L27.5 26.3333L26.3333 27.5ZM17.9167 21.6667C18.9583 21.6667 19.8438 21.3021 20.5729 20.5729C21.3021 19.8438 21.6667 18.9583 21.6667 17.9167C21.6667 16.875 21.3021 15.9896 20.5729 15.2604C19.8438 14.5312 18.9583 14.1667 17.9167 14.1667C16.875 14.1667 15.9896 14.5312 15.2604 15.2604C14.5312 15.9896 14.1667 16.875 14.1667 17.9167C14.1667 18.9583 14.5312 19.8438 15.2604 20.5729C15.9896 21.3021 16.875 21.6667 17.9167 21.6667Z" fill="#47464A"/>
</g>
<defs>
<clipPath id="clip0_22595_157675">
<rect x="3.33203" y="3.33325" width="33.3333" height="33.3333" rx="16.6667" fill="white"/>
</clipPath>
</defs>
</svg>

<svg width="40" height="40" fill="none" xmlns="http://www.w3.org/2000/svg"><g clip-path="url(#clip0_22595_157675)"><path d="M26.333 27.5l-5.25-5.25a5.08 5.08 0 01-3.167 1.083c-1.513 0-2.795-.524-3.843-1.573-1.049-1.048-1.573-2.33-1.573-3.843 0-1.514.524-2.796 1.573-3.844 1.048-1.049 2.33-1.573 3.844-1.573 1.514 0 2.795.524 3.843 1.573 1.049 1.048 1.573 2.33 1.573 3.844a5.08 5.08 0 01-1.083 3.166l5.25 5.25-1.167 1.167zm-8.416-5.833c1.041 0 1.927-.365 2.656-1.094.73-.73 1.094-1.615 1.094-2.656 0-1.042-.365-1.927-1.094-2.657-.73-.729-1.615-1.093-2.656-1.093-1.042 0-1.927.364-2.657 1.093-.729.73-1.093 1.615-1.093 2.657 0 1.041.364 1.927 1.093 2.656.73.73 1.615 1.094 2.657 1.094z" fill="#47464A"/></g><defs><clipPath id="clip0_22595_157675"><rect x="3.332" y="3.333" width="33.333" height="33.333" rx="16.667" fill="#fff"/></clipPath></defs></svg>
